X: 16357
T: Gunpowder, The
R: reel
M: 4/4
K: Eminor
GE|:B,EED EFGA|BEED EFGA|Bcde dBAG|FGAB A2GE|
B,EED EFGA|BEED EFGA|Bcde dBAB|1 G2E2 E2GE:|2 G2E2 E2GA||
|:Bded edBA|BEED E2GA|Bdef gbag|fdd^c d2ga|
bagb agfa|gfeg f2ga|bagf edBA|1 Beed e2GA:|2 Beed e2GE||

